X:1
L:1/8
Q:1/8=160
M:6/8
K:G
 d | dc/B/A G2 A | EDE G2 B | AGE cBA | BGE E2 d | dc/B/A G2 A | EDE G2 B | AGE G2 A | GED D2 :| 
 c | BAB dBG | BAB dBG | AGA cBA | BGE E2 c | BAB def | gfe dBG | AGE G2 A | GED D2 :|
